X:2402
T:(S)Helg yn Dreain
T:(Hunt the Wren) 
C:Traditional
O:Isle of Man
N:See als KV 158,308,365.
Z:Kiaull Vannin 402 
M:6/8 
Q:140 
K:G 
e/e/|d2d G2G|BBB d d d/d/|c2 A A2 A|AAA e e e/e/|d2G G2G|BBB d d d/d/|c2c d2d|BBG G2|| 

